car-connected.svg

<svg fill="currentColor" viewBox="0 0 24 24"><path d="M5 14h14l-1.5-4.5h-11zm12.5 5a1.5 1.5 0 0 0 1.5-1.5 1.5 1.5 0 0 0-1.5-1.5 1.5 1.5 0 0 0-1.5 1.5 1.5 1.5 0 0 0 1.5 1.5m-11 0A1.5 1.5 0 0 0 8 17.5 1.5 1.5 0 0 0 6.5 16 1.5 1.5 0 0 0 5 17.5 1.5 1.5 0 0 0 6.5 19M18.92 9 21 15v8a1 1 0 0 1-1 1h-1a1 1 0 0 1-1-1v-1H6v1a1 1 0 0 1-1 1H4a1 1 0 0 1-1-1v-8l2.08-6c.2-.58.77-1 1.42-1h11c.65 0 1.22.42 1.42 1M12 0c2.12 0 4.15.86 5.65 2.35l-1.42 1.42A6.02 6.02 0 0 0 12 2c-1.58 0-3.11.65-4.23 1.77L6.36 2.35A8 8 0 0 1 12 0m0 4c1.06 0 2.07.44 2.82 1.18L13.4 6.6c-.37-.37-.87-.6-1.4-.6-.5 0-1.03.23-1.4.6L9.18 5.18C9.93 4.44 10.94 4 12 4"/></svg>

<svg  viewBox="0 0 24 24" fill="currentColor"><path  d="M5,14H19L17.5,9.5H6.5L5,14M17.5,19A1.5,1.5 0 0,0 19,17.5A1.5,1.5 0 0,0 17.5,16A1.5,1.5 0 0,0 16,17.5A1.5,1.5 0 0,0 17.5,19M6.5,19A1.5,1.5 0 0,0 8,17.5A1.5,1.5 0 0,0 6.5,16A1.5,1.5 0 0,0 5,17.5A1.5,1.5 0 0,0 6.5,19M18.92,9L21,15V23A1,1 0 0,1 20,24H19A1,1 0 0,1 18,23V22H6V23A1,1 0 0,1 5,24H4A1,1 0 0,1 3,23V15L5.08,9C5.28,8.42 5.85,8 6.5,8H17.5C18.15,8 18.72,8.42 18.92,9M12,0C14.12,0 16.15,0.86 17.65,2.35L16.23,3.77C15.11,2.65 13.58,2 12,2C10.42,2 8.89,2.65 7.77,3.77L6.36,2.35C7.85,0.86 9.88,0 12,0M12,4C13.06,4 14.07,4.44 14.82,5.18L13.4,6.6C13.03,6.23 12.53,6 12,6C11.5,6 10.97,6.23 10.6,6.6L9.18,5.18C9.93,4.44 10.94,4 12,4Z"/></svg>
